images/content/johnson-solids/gyroelongated-triangular-cupola.svg

<?xml version="1.0" encoding="UTF-8"?>
<svg xmlns="http://www.w3.org/2000/svg" xmlns:xlink="http://www.w3.org/1999/xlink" width="214pt" height="180pt" viewBox="0 0 214 180" version="1.2">
<g id="surface1">
<path style=" stroke:none;fill-rule:evenodd;fill:rgb(83.752441%,57.809448%,45.46814%);fill-opacity:1;" d="M 33.78125 39.550781 L 104.125 1.1875 L 73.011719 65.242188 L 33.78125 39.550781 "/>
<path style="fill:none;stroke-width:6.094;stroke-linecap:butt;stroke-linejoin:miter;stroke:rgb(13.729858%,12.159729%,12.548828%);stroke-opacity:1;stroke-miterlimit:4;" d="M 337.8125 1404.492188 L 1041.25 1788.125 L 730.117188 1147.578125 Z M 337.8125 1404.492188 " transform="matrix(0.1,0,0,-0.1,0,180)"/>
<path style=" stroke:none;fill-rule:evenodd;fill:rgb(84.432983%,76.161194%,75.282288%);fill-opacity:1;" d="M 36.59375 121.972656 L 73.011719 65.242188 L 104.421875 137.023438 L 36.59375 121.972656 "/>
<path style="fill:none;stroke-width:6.094;stroke-linecap:butt;stroke-linejoin:miter;stroke:rgb(13.729858%,12.159729%,12.548828%);stroke-opacity:1;stroke-miterlimit:4;" d="M 365.9375 580.273438 L 730.117188 1147.578125 L 1044.21875 429.765625 Z M 365.9375 580.273438 " transform="matrix(0.1,0,0,-0.1,0,180)"/>
<path style=" stroke:none;fill-rule:evenodd;fill:rgb(92.837524%,73.939514%,57.463074%);fill-opacity:1;" d="M 33.78125 39.550781 L 73.011719 65.242188 L 36.59375 121.972656 L 33.78125 39.550781 "/>
<path style="fill:none;stroke-width:6.094;stroke-linecap:butt;stroke-linejoin:miter;stroke:rgb(13.729858%,12.159729%,12.548828%);stroke-opacity:1;stroke-miterlimit:4;" d="M 337.8125 1404.492188 L 730.117188 1147.578125 L 365.9375 580.273438 Z M 337.8125 1404.492188 " transform="matrix(0.1,0,0,-0.1,0,180)"/>
<path style=" stroke:none;fill-rule:evenodd;fill:rgb(61.804199%,50.860596%,60.108948%);fill-opacity:1;" d="M 73.011719 65.242188 L 104.125 1.1875 L 171.699219 154.644531 "/>
<path style="fill:none;stroke-width:6.094;stroke-linecap:butt;stroke-linejoin:miter;stroke:rgb(13.729858%,12.159729%,12.548828%);stroke-opacity:1;stroke-miterlimit:4;" d="M 730.117188 1147.578125 L 1041.25 1788.125 " transform="matrix(0.1,0,0,-0.1,0,180)"/>
<path style="fill-rule:evenodd;fill:rgb(61.804199%,50.860596%,60.108948%);fill-opacity:1;stroke-width:6.094;stroke-linecap:butt;stroke-linejoin:miter;stroke:rgb(13.729858%,12.159729%,12.548828%);stroke-opacity:1;stroke-miterlimit:4;" d="M 1716.992188 253.554688 L 1044.21875 429.765625 L 730.117188 1147.578125 " transform="matrix(0.1,0,0,-0.1,0,180)"/>
<path style=" stroke:none;fill-rule:evenodd;fill:rgb(62.356567%,68.917847%,85.249329%);fill-opacity:1;" d="M 94.347656 178.386719 L 104.421875 137.023438 L 171.699219 154.644531 L 94.347656 178.386719 "/>
<path style="fill:none;stroke-width:6.094;stroke-linecap:butt;stroke-linejoin:miter;stroke:rgb(13.729858%,12.159729%,12.548828%);stroke-opacity:1;stroke-miterlimit:4;" d="M 943.476562 16.132812 L 1044.21875 429.765625 L 1716.992188 253.554688 Z M 943.476562 16.132812 " transform="matrix(0.1,0,0,-0.1,0,180)"/>
<path style=" stroke:none;fill-rule:evenodd;fill:rgb(82.304382%,86.05957%,89.640808%);fill-opacity:1;" d="M 36.59375 121.972656 L 104.421875 137.023438 L 94.347656 178.386719 L 36.59375 121.972656 "/>
<path style="fill:none;stroke-width:6.094;stroke-linecap:butt;stroke-linejoin:miter;stroke:rgb(13.729858%,12.159729%,12.548828%);stroke-opacity:1;stroke-miterlimit:4;" d="M 365.9375 580.273438 L 1044.21875 429.765625 L 943.476562 16.132812 Z M 365.9375 580.273438 " transform="matrix(0.1,0,0,-0.1,0,180)"/>
<path style=" stroke:none;fill-rule:evenodd;fill:rgb(50.337219%,28.593445%,23.141479%);fill-opacity:1;" d="M 93.109375 3.179688 L 104.125 1.1875 L 33.78125 39.550781 L 93.109375 3.179688 "/>
<path style="fill:none;stroke-width:6.094;stroke-linecap:butt;stroke-linejoin:miter;stroke:rgb(13.729858%,12.159729%,12.548828%);stroke-opacity:1;stroke-miterlimit:4;" d="M 931.09375 1768.203125 L 1041.25 1788.125 L 337.8125 1404.492188 Z M 931.09375 1768.203125 " transform="matrix(0.1,0,0,-0.1,0,180)"/>
<path style=" stroke:none;fill-rule:evenodd;fill:rgb(61.804199%,50.860596%,60.108948%);fill-opacity:1;" d="M 104.125 1.1875 L 176.050781 9.554688 L 171.699219 154.644531 "/>
<path style="fill:none;stroke-width:6.094;stroke-linecap:butt;stroke-linejoin:miter;stroke:rgb(13.729858%,12.159729%,12.548828%);stroke-opacity:1;stroke-miterlimit:4;" d="M 1041.25 1788.125 L 1760.507812 1704.453125 " transform="matrix(0.1,0,0,-0.1,0,180)"/>
<path style=" stroke:none;fill-rule:evenodd;fill:rgb(30.270386%,59.107971%,74.990845%);fill-opacity:1;" d="M 93.109375 3.179688 L 176.050781 9.554688 L 104.125 1.1875 L 93.109375 3.179688 "/>
<path style="fill:none;stroke-width:6.094;stroke-linecap:butt;stroke-linejoin:miter;stroke:rgb(13.729858%,12.159729%,12.548828%);stroke-opacity:1;stroke-miterlimit:4;" d="M 931.09375 1768.203125 L 1760.507812 1704.453125 L 1041.25 1788.125 Z M 931.09375 1768.203125 " transform="matrix(0.1,0,0,-0.1,0,180)"/>
<path style=" stroke:none;fill-rule:evenodd;fill:rgb(96.928406%,77.001953%,51.422119%);fill-opacity:1;" d="M 2.683594 102.9375 L 33.78125 39.550781 L 36.59375 121.972656 L 2.683594 102.9375 "/>
<path style="fill:none;stroke-width:6.094;stroke-linecap:butt;stroke-linejoin:miter;stroke:rgb(13.729858%,12.159729%,12.548828%);stroke-opacity:1;stroke-miterlimit:4;" d="M 26.835938 770.625 L 337.8125 1404.492188 L 365.9375 580.273438 Z M 26.835938 770.625 " transform="matrix(0.1,0,0,-0.1,0,180)"/>
<path style="fill-rule:evenodd;fill:rgb(69.80896%,86.993408%,74.925232%);fill-opacity:1;stroke-width:6.094;stroke-linecap:butt;stroke-linejoin:miter;stroke:rgb(13.729858%,12.159729%,12.548828%);stroke-opacity:1;stroke-miterlimit:4;" d="M 365.9375 580.273438 L 943.476562 16.132812 L 667.734375 137.265625 " transform="matrix(0.1,0,0,-0.1,0,180)"/>
<path style="fill-rule:evenodd;fill:rgb(69.80896%,86.993408%,74.925232%);fill-opacity:1;stroke-width:6.094;stroke-linecap:butt;stroke-linejoin:miter;stroke:rgb(13.729858%,12.159729%,12.548828%);stroke-opacity:1;stroke-miterlimit:4;" d="M 667.734375 137.265625 L 26.835938 770.625 L 365.9375 580.273438 " transform="matrix(0.1,0,0,-0.1,0,180)"/>
<path style="fill-rule:evenodd;fill:rgb(61.804199%,50.860596%,60.108948%);fill-opacity:1;stroke-width:6.094;stroke-linecap:butt;stroke-linejoin:miter;stroke:rgb(13.729858%,12.159729%,12.548828%);stroke-opacity:1;stroke-miterlimit:4;" d="M 1760.507812 1704.453125 L 2126.015625 880.390625 L 1716.992188 253.554688 " transform="matrix(0.1,0,0,-0.1,0,180)"/>
<path style=" stroke:none;fill-rule:evenodd;fill:rgb(77.894592%,44.067383%,17.973328%);fill-opacity:1;" d="M 159.699219 154.601562 L 171.699219 154.644531 L 212.601562 91.960938 L 159.699219 154.601562 "/>
<path style="fill:none;stroke-width:6.094;stroke-linecap:butt;stroke-linejoin:miter;stroke:rgb(13.729858%,12.159729%,12.548828%);stroke-opacity:1;stroke-miterlimit:4;" d="M 1596.992188 253.984375 L 1716.992188 253.554688 L 2126.015625 880.390625 Z M 1596.992188 253.984375 " transform="matrix(0.1,0,0,-0.1,0,180)"/>
<path style=" stroke:none;fill-rule:evenodd;fill:rgb(39.916992%,27.038574%,23.020935%);fill-opacity:1;" d="M 94.347656 178.386719 L 171.699219 154.644531 L 159.699219 154.601562 L 94.347656 178.386719 "/>
<path style="fill:none;stroke-width:6.094;stroke-linecap:butt;stroke-linejoin:miter;stroke:rgb(13.729858%,12.159729%,12.548828%);stroke-opacity:1;stroke-miterlimit:4;" d="M 943.476562 16.132812 L 1716.992188 253.554688 L 1596.992188 253.984375 Z M 943.476562 16.132812 " transform="matrix(0.1,0,0,-0.1,0,180)"/>
<path style="fill-rule:evenodd;fill:rgb(32.568359%,42.567444%,67.419434%);fill-opacity:1;stroke-width:6.094;stroke-linecap:butt;stroke-linejoin:miter;stroke:rgb(13.729858%,12.159729%,12.548828%);stroke-opacity:1;stroke-miterlimit:4;" d="M 931.09375 1768.203125 L 337.8125 1404.492188 L 26.835938 770.625 " transform="matrix(0.1,0,0,-0.1,0,180)"/>
<path style=" stroke:none;fill-rule:evenodd;fill:rgb(53.768921%,28.538513%,22.772217%);fill-opacity:1;" d="M 66.773438 166.273438 L 94.347656 178.386719 L 159.699219 154.601562 L 66.773438 166.273438 "/>
<path style="fill:none;stroke-width:6.094;stroke-linecap:butt;stroke-linejoin:miter;stroke:rgb(13.729858%,12.159729%,12.548828%);stroke-opacity:1;stroke-miterlimit:4;" d="M 667.734375 137.265625 L 943.476562 16.132812 L 1596.992188 253.984375 Z M 667.734375 137.265625 " transform="matrix(0.1,0,0,-0.1,0,180)"/>
<path style=" stroke:none;fill-rule:evenodd;fill:rgb(78.353882%,80.751038%,87.600708%);fill-opacity:1;" d="M 161.960938 61.378906 L 176.050781 9.554688 L 93.109375 3.179688 L 161.960938 61.378906 "/>
<path style="fill:none;stroke-width:6.094;stroke-linecap:butt;stroke-linejoin:miter;stroke:rgb(13.729858%,12.159729%,12.548828%);stroke-opacity:1;stroke-miterlimit:4;" d="M 1619.609375 1186.210938 L 1760.507812 1704.453125 L 931.09375 1768.203125 Z M 1619.609375 1186.210938 " transform="matrix(0.1,0,0,-0.1,0,180)"/>
<path style=" stroke:none;fill-rule:evenodd;fill:rgb(94.755554%,90.103149%,75.660706%);fill-opacity:1;" d="M 161.960938 61.378906 L 212.601562 91.960938 L 176.050781 9.554688 L 161.960938 61.378906 "/>
<path style="fill:none;stroke-width:6.094;stroke-linecap:butt;stroke-linejoin:miter;stroke:rgb(13.729858%,12.159729%,12.548828%);stroke-opacity:1;stroke-miterlimit:4;" d="M 1619.609375 1186.210938 L 2126.015625 880.390625 L 1760.507812 1704.453125 Z M 1619.609375 1186.210938 " transform="matrix(0.1,0,0,-0.1,0,180)"/>
<path style=" stroke:none;fill-rule:evenodd;fill:rgb(89.741516%,70.237732%,57.391357%);fill-opacity:1;" d="M 159.699219 154.601562 L 212.601562 91.960938 L 161.960938 61.378906 L 159.699219 154.601562 "/>
<path style="fill:none;stroke-width:6.094;stroke-linecap:butt;stroke-linejoin:miter;stroke:rgb(13.729858%,12.159729%,12.548828%);stroke-opacity:1;stroke-miterlimit:4;" d="M 1596.992188 253.984375 L 2126.015625 880.390625 L 1619.609375 1186.210938 Z M 1596.992188 253.984375 " transform="matrix(0.1,0,0,-0.1,0,180)"/>
<path style="fill-rule:evenodd;fill:rgb(32.568359%,42.567444%,67.419434%);fill-opacity:1;stroke-width:6.094;stroke-linecap:butt;stroke-linejoin:miter;stroke:rgb(13.729858%,12.159729%,12.548828%);stroke-opacity:1;stroke-miterlimit:4;" d="M 26.835938 770.625 L 648.046875 1106.640625 L 931.09375 1768.203125 " transform="matrix(0.1,0,0,-0.1,0,180)"/>
<path style=" stroke:none;fill-rule:evenodd;fill:rgb(57.554626%,46.34552%,56.474304%);fill-opacity:1;" d="M 2.683594 102.9375 L 66.773438 166.273438 L 64.804688 69.335938 L 2.683594 102.9375 "/>
<path style="fill:none;stroke-width:6.094;stroke-linecap:butt;stroke-linejoin:miter;stroke:rgb(13.729858%,12.159729%,12.548828%);stroke-opacity:1;stroke-miterlimit:4;" d="M 26.835938 770.625 L 667.734375 137.265625 L 648.046875 1106.640625 Z M 26.835938 770.625 " transform="matrix(0.1,0,0,-0.1,0,180)"/>
<path style=" stroke:none;fill-rule:evenodd;fill:rgb(76.237488%,75.09613%,83.299255%);fill-opacity:1;" d="M 64.804688 69.335938 L 161.960938 61.378906 L 93.109375 3.179688 L 64.804688 69.335938 "/>
<path style="fill:none;stroke-width:6.094;stroke-linecap:butt;stroke-linejoin:miter;stroke:rgb(13.729858%,12.159729%,12.548828%);stroke-opacity:1;stroke-miterlimit:4;" d="M 648.046875 1106.640625 L 1619.609375 1186.210938 L 931.09375 1768.203125 Z M 648.046875 1106.640625 " transform="matrix(0.1,0,0,-0.1,0,180)"/>
<path style="fill-rule:evenodd;fill:rgb(79.556274%,63.99231%,62.306213%);fill-opacity:1;stroke-width:6.094;stroke-linecap:butt;stroke-linejoin:miter;stroke:rgb(13.729858%,12.159729%,12.548828%);stroke-opacity:1;stroke-miterlimit:4;" d="M 1596.992188 253.984375 L 1619.609375 1186.210938 L 648.046875 1106.640625 " transform="matrix(0.1,0,0,-0.1,0,180)"/>
<path style="fill-rule:evenodd;fill:rgb(79.556274%,63.99231%,62.306213%);fill-opacity:1;stroke-width:6.094;stroke-linecap:butt;stroke-linejoin:miter;stroke:rgb(13.729858%,12.159729%,12.548828%);stroke-opacity:1;stroke-miterlimit:4;" d="M 648.046875 1106.640625 L 667.734375 137.265625 L 1596.992188 253.984375 " transform="matrix(0.1,0,0,-0.1,0,180)"/>
</g>
</svg>

<svg xmlns="http://www.w3.org/2000/svg" width="214pt" height="240" viewBox="0 0 214 180" version="1.2"><path style="stroke:none;fill-rule:evenodd;fill:#d69374;fill-opacity:1" d="m33.781 39.55 70.344-38.362-31.113 64.054-39.23-25.691"/><path style="fill:none;stroke-width:6.094;stroke-linecap:butt;stroke-linejoin:miter;stroke:#231f20;stroke-opacity:1;stroke-miterlimit:4" d="m337.813 1404.492 703.437 383.633-311.133-640.547Zm0 0" transform="matrix(.1 0 0 -.1 0 180)"/><path style="stroke:none;fill-rule:evenodd;fill:#d7c2c0;fill-opacity:1" d="m36.594 121.973 36.418-56.73 31.41 71.78-67.828-15.05"/><path style="fill:none;stroke-width:6.094;stroke-linecap:butt;stroke-linejoin:miter;stroke:#231f20;stroke-opacity:1;stroke-miterlimit:4" d="m365.938 580.273 364.18 567.305 314.1-717.812Zm0 0" transform="matrix(.1 0 0 -.1 0 180)"/><path style="stroke:none;fill-rule:evenodd;fill:#edbd93;fill-opacity:1" d="m33.781 39.55 39.23 25.692-36.417 56.73-2.813-82.421"/><path style="fill:none;stroke-width:6.094;stroke-linecap:butt;stroke-linejoin:miter;stroke:#231f20;stroke-opacity:1;stroke-miterlimit:4" d="m337.813 1404.492 392.304-256.914-364.18-567.305Zm0 0" transform="matrix(.1 0 0 -.1 0 180)"/><path style="stroke:none;fill-rule:evenodd;fill:#9e8299;fill-opacity:1" d="m73.012 65.242 31.113-64.055 67.574 153.458"/><path style="fill:none;stroke-width:6.094;stroke-linecap:butt;stroke-linejoin:miter;stroke:#231f20;stroke-opacity:1;stroke-miterlimit:4" d="m730.117 1147.578 311.133 640.547" transform="matrix(.1 0 0 -.1 0 180)"/><path style="fill-rule:evenodd;fill:#9e8299;fill-opacity:1;stroke-width:6.094;stroke-linecap:butt;stroke-linejoin:miter;stroke:#231f20;stroke-opacity:1;stroke-miterlimit:4" d="m1716.992 253.555-672.773 176.21-314.102 717.813" transform="matrix(.1 0 0 -.1 0 180)"/><path style="stroke:none;fill-rule:evenodd;fill:#9fb0d9;fill-opacity:1" d="m94.348 178.387 10.074-41.364 67.277 17.622-77.351 23.742"/><path style="fill:none;stroke-width:6.094;stroke-linecap:butt;stroke-linejoin:miter;stroke:#231f20;stroke-opacity:1;stroke-miterlimit:4" d="m943.477 16.133 100.742 413.633 672.773-176.211Zm0 0" transform="matrix(.1 0 0 -.1 0 180)"/><path style="stroke:none;fill-rule:evenodd;fill:#d2dbe5;fill-opacity:1" d="m36.594 121.973 67.828 15.05-10.074 41.364-57.754-56.414"/><path style="fill:none;stroke-width:6.094;stroke-linecap:butt;stroke-linejoin:miter;stroke:#231f20;stroke-opacity:1;stroke-miterlimit:4" d="m365.938 580.273 678.28-150.507L943.478 16.133Zm0 0" transform="matrix(.1 0 0 -.1 0 180)"/><path style="stroke:none;fill-rule:evenodd;fill:#80493b;fill-opacity:1" d="m93.11 3.18 11.015-1.993-70.344 38.364L93.11 3.18"/><path style="fill:none;stroke-width:6.094;stroke-linecap:butt;stroke-linejoin:miter;stroke:#231f20;stroke-opacity:1;stroke-miterlimit:4" d="m931.094 1768.203 110.156 19.922-703.438-383.633Zm0 0" transform="matrix(.1 0 0 -.1 0 180)"/><path style="stroke:none;fill-rule:evenodd;fill:#9e8299;fill-opacity:1" d="m104.125 1.188 71.926 8.367-4.352 145.09"/><path style="fill:none;stroke-width:6.094;stroke-linecap:butt;stroke-linejoin:miter;stroke:#231f20;stroke-opacity:1;stroke-miterlimit:4" d="m1041.25 1788.125 719.258-83.672" transform="matrix(.1 0 0 -.1 0 180)"/><path style="stroke:none;fill-rule:evenodd;fill:#4d97bf;fill-opacity:1" d="m93.11 3.18 82.94 6.375-71.925-8.367L93.109 3.18"/><path style="fill:none;stroke-width:6.094;stroke-linecap:butt;stroke-linejoin:miter;stroke:#231f20;stroke-opacity:1;stroke-miterlimit:4" d="m931.094 1768.203 829.414-63.75-719.258 83.672Zm0 0" transform="matrix(.1 0 0 -.1 0 180)"/><path style="stroke:none;fill-rule:evenodd;fill:#f7c483;fill-opacity:1" d="M2.684 102.938 33.78 39.55l2.813 82.422-33.91-19.035"/><path style="fill:none;stroke-width:6.094;stroke-linecap:butt;stroke-linejoin:miter;stroke:#231f20;stroke-opacity:1;stroke-miterlimit:4" d="m26.836 770.625 310.976 633.867 28.125-824.219Zm0 0" transform="matrix(.1 0 0 -.1 0 180)"/><path style="fill-rule:evenodd;fill:#b2debf;fill-opacity:1;stroke-width:6.094;stroke-linecap:butt;stroke-linejoin:miter;stroke:#231f20;stroke-opacity:1;stroke-miterlimit:4" d="m365.938 580.273 577.539-564.14-275.743 121.133" transform="matrix(.1 0 0 -.1 0 180)"/><path style="fill-rule:evenodd;fill:#b2debf;fill-opacity:1;stroke-width:6.094;stroke-linecap:butt;stroke-linejoin:miter;stroke:#231f20;stroke-opacity:1;stroke-miterlimit:4" d="M667.734 137.266 26.836 770.625l339.101-190.352" transform="matrix(.1 0 0 -.1 0 180)"/><path style="fill-rule:evenodd;fill:#9e8299;fill-opacity:1;stroke-width:6.094;stroke-linecap:butt;stroke-linejoin:miter;stroke:#231f20;stroke-opacity:1;stroke-miterlimit:4" d="m1760.508 1704.453 365.508-824.062-409.024-626.836" transform="matrix(.1 0 0 -.1 0 180)"/><path style="stroke:none;fill-rule:evenodd;fill:#c7702e;fill-opacity:1" d="m159.7 154.602 12 .043 40.902-62.684-52.903 62.64"/><path style="fill:none;stroke-width:6.094;stroke-linecap:butt;stroke-linejoin:miter;stroke:#231f20;stroke-opacity:1;stroke-miterlimit:4" d="m1596.992 253.984 120-.43 409.024 626.837Zm0 0" transform="matrix(.1 0 0 -.1 0 180)"/><path style="stroke:none;fill-rule:evenodd;fill:#66453b;fill-opacity:1" d="m94.348 178.387 77.351-23.742-12-.043-65.351 23.785"/><path style="fill:none;stroke-width:6.094;stroke-linecap:butt;stroke-linejoin:miter;stroke:#231f20;stroke-opacity:1;stroke-miterlimit:4" d="m943.477 16.133 773.515 237.422-120 .43Zm0 0" transform="matrix(.1 0 0 -.1 0 180)"/><path style="fill-rule:evenodd;fill:#536dac;fill-opacity:1;stroke-width:6.094;stroke-linecap:butt;stroke-linejoin:miter;stroke:#231f20;stroke-opacity:1;stroke-miterlimit:4" d="m931.094 1768.203-593.282-363.71L26.837 770.624" transform="matrix(.1 0 0 -.1 0 180)"/><path style="stroke:none;fill-rule:evenodd;fill:#89493a;fill-opacity:1" d="m66.773 166.273 27.575 12.114 65.351-23.785-92.926 11.671"/><path style="fill:none;stroke-width:6.094;stroke-linecap:butt;stroke-linejoin:miter;stroke:#231f20;stroke-opacity:1;stroke-miterlimit:4" d="M667.734 137.266 943.477 16.133l653.515 237.851Zm0 0" transform="matrix(.1 0 0 -.1 0 180)"/><path style="stroke:none;fill-rule:evenodd;fill:#c8cedf;fill-opacity:1" d="m161.96 61.379 14.09-51.824L93.11 3.18l68.85 58.199"/><path style="fill:none;stroke-width:6.094;stroke-linecap:butt;stroke-linejoin:miter;stroke:#231f20;stroke-opacity:1;stroke-miterlimit:4" d="m1619.61 1186.21 140.898 518.243-829.414 63.75Zm0 0" transform="matrix(.1 0 0 -.1 0 180)"/><path style="stroke:none;fill-rule:evenodd;fill:#f2e6c1;fill-opacity:1" d="m161.96 61.379 50.642 30.582L176.05 9.555l-14.09 51.824"/><path style="fill:none;stroke-width:6.094;stroke-linecap:butt;stroke-linejoin:miter;stroke:#231f20;stroke-opacity:1;stroke-miterlimit:4" d="m1619.61 1186.21 506.406-305.82-365.508 824.063Zm0 0" transform="matrix(.1 0 0 -.1 0 180)"/><path style="stroke:none;fill-rule:evenodd;fill:#e5b392;fill-opacity:1" d="m159.7 154.602 52.902-62.641-50.641-30.582-2.262 93.223"/><path style="fill:none;stroke-width:6.094;stroke-linecap:butt;stroke-linejoin:miter;stroke:#231f20;stroke-opacity:1;stroke-miterlimit:4" d="m1596.992 253.984 529.024 626.407-506.407 305.82Zm0 0" transform="matrix(.1 0 0 -.1 0 180)"/><path style="fill-rule:evenodd;fill:#536dac;fill-opacity:1;stroke-width:6.094;stroke-linecap:butt;stroke-linejoin:miter;stroke:#231f20;stroke-opacity:1;stroke-miterlimit:4" d="m26.836 770.625 621.21 336.016 283.048 661.562" transform="matrix(.1 0 0 -.1 0 180)"/><path style="stroke:none;fill-rule:evenodd;fill:#937690;fill-opacity:1" d="m2.684 102.938 64.09 63.335-1.97-96.937-62.12 33.602"/><path style="fill:none;stroke-width:6.094;stroke-linecap:butt;stroke-linejoin:miter;stroke:#231f20;stroke-opacity:1;stroke-miterlimit:4" d="m26.836 770.625 640.898-633.36-19.687 969.376Zm0 0" transform="matrix(.1 0 0 -.1 0 180)"/><path style="stroke:none;fill-rule:evenodd;fill:#c2bfd4;fill-opacity:1" d="m64.805 69.336 97.156-7.957-68.852-58.2-28.304 66.157"/><path style="fill:none;stroke-width:6.094;stroke-linecap:butt;stroke-linejoin:miter;stroke:#231f20;stroke-opacity:1;stroke-miterlimit:4" d="m648.047 1106.64 971.562 79.57-688.515 581.993Zm0 0" transform="matrix(.1 0 0 -.1 0 180)"/><path style="fill-rule:evenodd;fill:#cba39f;fill-opacity:1;stroke-width:6.094;stroke-linecap:butt;stroke-linejoin:miter;stroke:#231f20;stroke-opacity:1;stroke-miterlimit:4" d="m1596.992 253.984 22.617 932.227-971.562-79.57" transform="matrix(.1 0 0 -.1 0 180)"/><path style="fill-rule:evenodd;fill:#cba39f;fill-opacity:1;stroke-width:6.094;stroke-linecap:butt;stroke-linejoin:miter;stroke:#231f20;stroke-opacity:1;stroke-miterlimit:4" d="m648.047 1106.64 19.687-969.374 929.258 116.718" transform="matrix(.1 0 0 -.1 0 180)"/></svg>
